!!!COM: Gonzaga, Francisca
!!!CDT: 1847/10/17-1935/02/28
!!!OTL: Sedutor
!!!OPR: Tangos
**kern	**kern	**dynam
*part1	*part1	*part1
*staff2	*staff1	*
*>[Intro,A,Z0,A1,A,Z0,A2,B,A,Coda]	*>[Intro,A,A0,A1,A,A0,A2,B,A,Coda]	*>[Intro,A,A0,A1,A,A0,A2,B,A,Coda]
*>Intro	*>Intro	*>Intro
*clefF4	*clefG2	*
*k[b-]	*k[b-]	*
*M2/4	*M2/4	*
=	=	=
*F:	*F:	*
!	!LO:TX:a:B:t=Allegro	!
(16F	(16f 16a	f
=	=	=
16GLL	16gLL 16b-	.
16A	16a 16cc	.
16B-	16b- 16dd	.
16cJJ	16ccJJ 16ee	.
16dLL	16ddLL 16ff	.
16e	16ee 16gg	.
16f	16ff 16aa	.
16gJJ	16ggJJ 16bb-	.
=1	=1	=1
4a;)	4aa;) 4ccc	.
8gL	(8ggL 8bb-	p
8fJ	8ffJ 8aa	.
=3	=3	=3
!	!LO:TX:a:t=rit.	!
4.e	4ee) 4gg	.
.	8qccc/	.
.	8cccL	.
8c	8ccJ 8ee	.
=4	=4	=4
2B-	(4b- 4dd	.
.	4bb-)	.
=5	=5	=5
2C 2A 2c	4a 4cc	.
.	8qccc/	.
.	8cccL	.
.	8aJ 8cc	.
=6	=6	=6
8E; 8B- 8c	8e; 8b- 8cc	.
16r	16r	.
!	!LO:TX:a:B:t=Vagaroso	!
16c	16f 16a	p
8cL	8fL 8a	.
8B-J	16eJk 16g	.
.	16r	.
!!linebreak:original
=7!|:	=7!|:	=7!|:
*>A	*>A	*>A
!	!LO:TX:a:t=[segno]	!
!	!LO:TX:b:i:t=Com gosto	!
.	(8qf/	.
8.FL 8.A	[2a) [2cc	.
16AJk 16c	.	.
8cL 8f	.	.
8AJ 8c	.	.
=8	=8	=8
8.FFL	16aLL] 16cc]	.
.	(16bn	.
.	16cc	.
16AJk 16c	16ffJJ	.
8cL 8a	8bb-L	.
8AJ 8f	8aaJ)	.
=9	=9	=9
8.DL	4bn 4gg	.
16FJk 16d	.	.
.	(16qqaaa/LL	.
.	16qqbbb-/	.
.	16qqaaa/JJ	.
8BnL 8g	4bbn)	.
8FJ 8d	.	.
=10	=10	=10
.	(16qqggg/LL	.
.	16qqaaa/	.
.	16qqggg/JJ	.
8.CCL	8.cccL)	.
16EJk	16ccJk	.
8B-L 8c 8e	8ccL	.
8EJ	8b-J	.
=11	=11	=11
.	(8qf/	.
8.FFL	4f) 4a-X	.
16A-XJk 16c	.	.
8cL 8f	[4aa-X	.
8A-J 8c	.	.
=12	=12	=12
8.AA-XL	4aa-]	.
16A-XJk 16f	.	.
.	(16qqaa-X/LL	.
.	16qqbb-/	.
.	16qqaa-/JJ	.
8cL 8a-X	8ggL)	.
8A-J 8f	8ffJ	.
!!linebreak:original
=13	=13	=13
8.EL	4gg	.
16B-Jk 16c 16e	.	.
.	(16qqgg/LL	.
.	16qqccc/	.
.	16qqgg/JJ	.
8cL 8e 8g	4cc)	.
8B-J 8c 8e	.	.
=14	=14	=14
.	(16qqggg/LL	.
.	16qqcccc/	.
.	16qqggg/JJ	.
*	*8va	*
8CC	8ccc)	.
*	*X8va	*
16r	16r	.
16c	16f 16a	.
8cL	8fL 8a	.
8B-J	8eJ 8g	.
=15	=15	=15
.	(8qf/	.
8.FL 8.A	[2a) [2cc	.
16AJk 16c	.	.
8cL 8f	.	.
8AJ 8c	.	.
=16	=16	=16
8.FFL	8aL] 8cc]	.
.	8ff	.
16AJk 16c	.	.
8cL 8a	8ee	.
8AJ 8f	8ee-XJ	.
=17	=17	=17
8.BB-L	8b- 8ee-X	.
.	8r	.
16B-Jk 16d	.	.
8dL 8g	[4dd	.
8B-J 8d	.	.
=18	=18	=18
8.BB-L	16ddLL]	.
.	16cc#X	.
.	16dd	.
16B-Jk 16d	16ggJJ	.
8d;L 8g	8ccc;L	.
8B-J 8d-X	8dd-XJ 8bb-	.
=19	=19	=19
8.CL	4cc 4aa	.
16AJk 16c	.	.
.	16qqff/LL	.
.	(16qqgg/	.
.	16qqff/JJ	.
8cL 8f	4cc)	.
8AJ 8c	.	.
!!linebreak:original
=20	=20	=20
.	(16qqcc/LL	.
.	16qqdd/	.
.	16qqcc/JJ)	.
*^	*	*
8DL	4D	4f 4bn	.
8FJ 8Bn 8d	.	.	.
.	.	(16qqb-X/LL	.
.	.	16qqcc/	.
.	.	16qqb-/JJ)	.
8EL	4E	4e 4b-	.
8B-XJ 8c 8e	.	.	.
*v	*v	*	*
=21||	=21||	=21||
*>Z0	*>Z0	*>Z0
!	!LO:TX:a:t=[coda]	!
.	(16qqb-/LL	.
.	16qqcc/	.
.	16qqb-/JJ)	.
8.CL	[2f [2a	.
16AJk 16c	.	.
8cL 8f	.	.
8AJ 8c	.	.
=22	=22	=22
*>A1	*>A1	*>A1
(8qF/	.	.
8FF) 8F	8f] 8a]	.
16r	16r	.
16c	16a 16cc	.
8cL	8aL 8cc	.
8B-J	8gJ 8b-	.
=23:|!	=23:|!	=23:|!
*>A2	*>A2	*>A2
*d:	*d:	*
8qF/	.	.
8FF 8F	8f 8a	.
8r	16r	.
.	16a	.
4E 4G 4A 4c#X	8aL	.
.	8aJ	.
=24||	=24||	=24||
*>B	*>B	*>B
8.DL	16fKL 16a 16dd	mf
.	8f 8a 8dd	.
16AJk	16fJk 16a 16dd	.
!	!LO:TX:b:i:t=cresc.	!
8FL 8d	8fL 8a 8dd	.
8AJ	8fJ 8a 8dd	.
=25	=25	=25
8.EL	16gKL 16a 16cc#X 16ee	.
.	8g 8a 8cc# 8ee	.
16AJk	16gJk 16a 16cc# 16ee	.
8GL 8c#X	8gL 8a 8cc# 8ee	.
8AJ	8gJ 8a 8cc# 8ee	.
!!linebreak:original
=26	=26	=26
8.FL	[2a: [2dd: [2ff: [2aa:	f
16dJk	.	.
8AL 8f	.	.
8dJ	.	.
=27	=27	=27
8D: 8A: 8f:	8a] 8dd] 8ff] 8aa]	.
8r	8r	.
.	(16qqdd/LL	p
.	16qqee/	.
.	16qqdd/JJ	.
4r	8cc#XL)	.
.	8ddJ	.
=28	=28	=28
*g:	*g:	*
*^	*	*
!	!	!LO:TX:b:i:t=Con alma	!
8.cL	2F#X	8cc 8dd 8ff#X 8aa	.
.	.	8r	.
16dJk	.	.	.
8cL 8f#X	.	[4cc [4dd [4ff# [4aa	.
8dJ	.	.	.
=29	=29	=29	=29
8.cL	2F#X	16ccKL] 16dd] 16ff#] 16aa]	.
.	.	8gg#X	.
16dJk	.	16aaJk	.
8cL 8f#X	.	16dddLL	.
.	.	16ccc	.
8dJ	.	16bb-	.
.	.	16aaJJ	.
=30	=30	=30	=30
.	.	(16qqdd/LL	.
.	.	16qqgg/	.
.	.	16qqbb-/JJ	.
8.B-L	2G	[2bb-) [2ddd	.
16dJk	.	.	.
8B-L 8g	.	.	.
8dJ	.	.	.
*v	*v	*	*
=31	=31	=31
4G 4B- 4d 4g	4bb-] 4ddd]	.
.	(16qqddd/LL	.
.	16qqeee/	.
.	16qqddd/JJ	.
4r	8ccc#XL)	.
.	8dddJ	.
!!pagebreak:original
=32	=32	=32
*	*8va	*
8.BB-L	16aaaKL	f >
.	8aaa	.
16B-Jk 16d 16g	16aaaJk	.
*F:	*F:	*
8B-L 8d 8g	8gggL	.
8B-J 8d 8g	8gggJ	.
=33	=33	=33
8.BnL 8.d 8.f 8.a-X	16fffKL	.
.	8fff	.
16BJk 16d 16f 16a-	16fffJk	.
8BL 8d 8f 8a-	8dddL	.
8B-XJ 8d-X 8g	8bb-J 8ddd-X	.
*	*X8va	*
=34	=34	=34
8.AL 8.c 8.f	16aaKL 16ccc	]
.	8aa 8ccc	.
16AJk 16c 16f	16aaJk 16ccc	.
8AL 8c 8f	8ffL 8aa	.
8AJ 8c 8f	8ffJ 8aa	.
=35	=35	=35
8.FL 8.A 8.c	16ccKL 16ff	p
.	8cc 8ff	.
16FJk 16A 16c	16ccJk 16ff	.
8FL 8A 8c	8aL 8cc	.
8CJ 8F 8A	8aJ 8cc	.
=36	=36	=36
!	!LO:TX:a:t=string.	!
8.DL	16fKL 16bn 16dd	.
.	8f 8b 8dd	.
16GJk	16fJk 16b 16dd	.
8FL 8d	8fL 8b 8dd	.
8GJ	8fJ 8b 8ff	.
=37	=37	=37
8.EL	16b-KL 16ee	.
.	8b- 8ee	.
16cJk	16b-Jk 16ee	.
8B-L 8e	8eeL 8ccc	.
8cJ	8eeJ 8ccc	.
=38	=38	=38
8.FL	[2ff [2ccc	.
16cJk	.	.
8AL 8f	.	.
8cJ	.	.
!!linebreak:original
=39	=39	=39
8qFF/	.	.
8FF 8F	8ff] 8ccc]	.
8r	16r	.
.	16a	.
4E 4G 4A 4c#X	8aL	.
.	8aJ	.
=40	=40	=40
*d:	*d:	*
*^	*	*
!	!	!LO:TX:b:i:t=embalando	!
8.DL	2D	16aKL 16dd	p
.	.	8f	.
16AJk	.	16aJk	.
8FL 8d	.	16ddLL	.
.	.	16f	.
8AJ	.	16a	.
.	.	16ddJJ	.
=41	=41	=41	=41
8.EL	2E	16eeKL	.
.	.	8g	.
16AJk	.	16cc#XJk	.
8GL 8c#X	.	16eeLL	.
.	.	16g	.
8AJ	.	16cc#	.
.	.	16eeJJ	.
=42	=42	=42	=42
8.FL	2F	[2a: [2dd: [2ff: [2aa:	.
16dJk	.	.	.
8AL 8f	.	.	.
8dJ	.	.	.
*v	*v	*	*
=43	=43	=43
8D: 8A: 8f:	8a] 8dd] 8ff] 8aa]	.
8r	8r	.
.	(16qqdd/LL	.
.	16qqee/	.
.	16qqdd/JJ	.
4r	8cc#XL)	.
.	8ddJ	.
=44	=44	=44
*^	*	*
8.cL	[2F#X	8cc 8dd 8ff#X 8aa	.
.	.	8r	.
16dJk	.	.	.
8cL 8f#X	.	[4cc [4dd [4ff# [4aa	.
*g:	*g:	*g:	*
8dJ	.	.	.
!!linebreak:original
=45	=45	=45	=45
8.cL	2F#]	16ccKL] 16dd] 16ff#] 16aa]	.
.	.	8gg#X	.
16dJk	.	16aaJk	.
8cL 8f#X	.	16dddLL	.
.	.	16ccc	.
8dJ	.	16bb-	.
.	.	16aaJJ	.
=46	=46	=46	=46
.	.	(16qqdd/LL	.
.	.	16qqgg/	.
.	.	16qqbb-/JJ	.
8.B-L	[2G	[2bb-) [2ddd	.
16dJk	.	.	.
8B-L 8g	.	.	.
8dJ	.	.	.
*v	*v	*	*
=47	=47	=47
4G] 4B- 4d 4g	4bb-] 4ddd]	.
.	(16qqddd/LL	.
.	16qqeee/	.
.	16qqddd/JJ	.
4r	8ccc#XL)	.
.	8dddJ	.
=48	=48	=48
*	*8va	*
!	!LO:TX:b:i:t=dolce	!
8.BB-L	16aaaKL	.
.	8bb-	.
16B-Jk 16d 16g	16dddJk	.
8B-L 8d 8g	16aaaLL	.
.	16bb-	.
8B-J 8d 8g	16ddd	.
*F:	*F:	*
.	16aaaJJ	.
=49	=49	=49
8.BnL 8.d 8.f 8.a-X	16gggKL	.
.	8bbn	.
16BJk 16d 16f 16a-	16dddJk	.
8BL 8d 8f 8a-	16fffLL	.
.	16bb	.
8B-XJ 8d-X 8g	16ddd-X	.
.	16fffJJ	.
*	*X8va	*
!!linebreak:original
=50	=50	=50
.	(8qaa/	.
8.AL 8.c 8.f	16cccKL)	.
.	8cc	.
16AJk 16c 16f	16ffJk	.
8AL 8c 8f	16aaLL 16ccc	.
.	16cc	.
8AJ 8c 8f	16ff	.
.	16aaJJ 16ccc	.
=51	=51	=51
8.FL 8.A 8.c	16aaKL 16ccc	.
.	8cc	.
16FJk 16A 16c	16ffJk	.
8FL 8A 8c	16aaLL 16ccc	.
.	16cc	.
8CJ 8F 8A	16ff	.
.	16aaJJ 16ccc	.
=52	=52	=52
8.DL	8ff 8bbn	.
.	8r	.
16GJk	.	.
8FL 8d	4ff 4bb	.
8GJ	.	.
=53	=53	=53
8.EL	8ee 8bb-	.
.	8r	.
16cJk	.	.
8B-L 8e	4ee 4bb-	.
8cJ	.	.
=54	=54	=54
8.FL	[2ff [2ccc	.
16cJk	.	.
8AL 8f	.	.
8cJ	.	.
=55	=55	=55
8qFF/	.	.
8FF 8F	8ff] 8ccc]	.
16r	16r	.
16c	16f 16a	.
8cL	8fL 8a	.
8B-J	8eJ 8g	.
!	!LO:TX:a:t=D.S. al Coda	!
=56||	=56||	=56||
*>Coda	*>Coda	*>Coda
!	!LO:TX:a:t=[coda]	!
.	(16qqb-/LL	.
.	16qqcc/	.
8qGG/	16qqb-/JJ	.
8.FFL 8.F	4.f) 4.a	.
16BBnJk	.	.
8CL	.	.
8CCJ	8B- 8c 8e	.
=57	=57	=57
4FF	4A 4c 4f	.
4r	4r	.
==	==	==
*-	*-	*-
!!!system-decoration: {(s1,s2)}
!!!AGN: Tango
!!!EED: Florian Moldaschl
!!!END: 2025/12/23
!!!ENC: Florian Moldaschl
!!!EEV: 2026/01/14
!!!title: @{OPR}, @{SCT} №@{ONM}